X: 177
T: When I Came You Cried
C: Teton Sioux band 1911-1914
N: Derived from sioux172.krn
O: South Dakota, U.S.A.
N: Teton Sioux Music by Frances Densmore, 1918
Z: transcribed to **kern format by Craig Sapp
L: 1/8
M: 2/4
Q: 1/4=58
K: A clef=bass
%%linebreak <none>
A,2A,2 [I:setbarnb 1]||  
[M:3/4]A,4-A, E, ||  
[M:2/4]A,2A,3/ E,/ | 
E,4- | 
E,2F,2 | 
F,2A,2 ||  
[M:3/4]A,6 ||  
[M:2/4]A,2A,3/ F,/ ||  
[M:3/4]F,6 ||  
[M:2/4]E,2E,3/ C,/ ||  
[M:3/4]C,6 ||  
[M:2/4]C,2C,3/ B,,/ ||  
[M:3/4]B,,6 ||  
[M:2/4]B,,2B,,3/ A,,/ ||  
[M:3/4]A,,6 ||  
[M:2/4]A,, A,, A,, A,, | 
F,,4- | 
F,,4 | 
F, F,/> F,/A,2 ||  
[M:3/4]A, A,2<A,2F, ||  
[M:2/4]A,> B,A,2 ||  
[M:3/4]F,4F,2 ||  
[M:2/4]E,> F,E,2 | 
D,4 | 
D,2(D,3/ B,,/) | 
B,,2B,,2 | 
B,,2B,,3/ A,,/ ||  
[M:3/4]A,,6 ||  
[M:2/4]A,, A,, A,, A,, | 
F,,4 | 
F,,2F,,2 |]  



